lib/functional/design/eyedropper-sample.svg

<svg xmlns="http://www.w3.org/2000/svg" fill="none" stroke="currentColor" aria-hidden="true" viewBox="0 0 32 32"><g id="Icon-EyedropperSample"><g clip-path="url(#clip0_8_1214)"><g id="size=md (32px)"><g id="EyedropperSample"><path id="Vector" stroke-linecap="round" stroke-linejoin="round" stroke-width="2" d="M22.4749 14.475L23.0874 15.0875C23.4584 15.464 23.6664 15.9714 23.6664 16.5C23.6664 17.0286 23.4584 17.536 23.0874 17.9125L22.2124 18.7875C22.1193 18.882 22.0084 18.957 21.8861 19.0082C21.7638 19.0595 21.6325 19.0858 21.4999 19.0858C21.3673 19.0858 21.236 19.0595 21.1137 19.0082C20.9914 18.957 20.8804 18.882 20.7874 18.7875L13.2124 11.2125C13.1179 11.1194 13.0429 11.0085 12.9917 10.8862C12.9404 10.7639 12.9141 10.6326 12.9141 10.5C12.9141 10.3674 12.9404 10.2361 12.9917 10.1138C13.0429 9.99146 13.1179 9.88055 13.2124 9.7875L14.0874 8.9125C14.4639 8.5415 14.9713 8.33353 15.4999 8.33353C16.0285 8.33353 16.5359 8.5415 16.9124 8.9125L17.5249 9.525L20.9749 6.075C22.3249 4.725 24.5249 4.65 25.8999 5.9625C26.2393 6.28354 26.511 6.6693 26.699 7.09702C26.887 7.52474 26.9875 7.98577 26.9945 8.45293C27.0015 8.92009 26.9148 9.38392 26.7397 9.81707C26.5646 10.2502 26.3046 10.6439 25.9749 10.975L22.4749 14.475Z"/><path id="Vector_2" stroke-linecap="round" stroke-linejoin="round" stroke-width="2" d="M19.825 17.825L12.825 24.825C12.3311 25.3249 11.713 25.6845 11.0343 25.8668C10.3555 26.0491 9.64052 26.0476 8.96254 25.8625L6.03754 27.1375C5.85512 27.2175 5.65296 27.2412 5.45698 27.2056C5.26099 27.17 5.08012 27.0766 4.93754 26.9375V26.9375C4.83384 26.8354 4.76387 26.704 4.73706 26.561C4.71024 26.418 4.72786 26.2702 4.78754 26.1375L6.13754 23.0375C5.9524 22.3595 5.95091 21.6445 6.13323 20.9658C6.31555 20.287 6.67511 19.669 7.17504 19.175L14.175 12.175"/><path id="Vector_3" stroke-linecap="round" stroke-linejoin="round" stroke-width="2" d="M6.5376 20H17.6626"/></g></g></g></g><defs><clipPath id="clip0_8_1214"><rect width="32" height="32" fill="white" rx="5"/></clipPath></defs></svg>

<svg xmlns="http://www.w3.org/2000/svg" fill="none" stroke="currentColor" aria-hidden="true" viewBox="0 0 32 32"><g stroke="#101828" stroke-linecap="round" stroke-linejoin="round" stroke-width="2" clip-path="url(#a)"><path d="m22.475 14.475.612.613a2.012 2.012 0 0 1 0 2.825l-.875.875a1 1 0 0 1-1.425 0l-7.575-7.575a1 1 0 0 1 0-1.425l.875-.876a2.012 2.012 0 0 1 2.825 0l.613.613 3.45-3.45c1.35-1.35 3.55-1.425 4.925-.112a3.5 3.5 0 0 1 .075 5.012l-3.5 3.5Z"/><path d="m19.825 17.825-7 7a3.962 3.962 0 0 1-3.862 1.038l-2.925 1.274a1 1 0 0 1-1.1-.2v0a.713.713 0 0 1-.15-.8l1.35-3.1a3.962 3.962 0 0 1 1.037-3.862l7-7M6.538 20h11.125"/></g><defs><clipPath id="a"><rect width="32" height="32" fill="#fff" rx="5"/></clipPath></defs></svg>
